apps/48/baobab.svg

<?xml version="1.0" encoding="UTF-8" standalone="no"?>
<!-- Created with Inkscape (http://www.inkscape.org/) -->

<svg
   xmlns:svg="http://www.w3.org/2000/svg"
   xmlns="http://www.w3.org/2000/svg"
   xmlns:xlink="http://www.w3.org/1999/xlink"
   version="1.0"
   width="48"
   height="48"
   id="svg2417">
  <defs
     id="defs2419">
    <linearGradient
       id="linearGradient6297">
      <stop
         id="stop6299"
         style="stop-color:#d87468;stop-opacity:1"
         offset="0" />
      <stop
         id="stop6281"
         style="stop-color:#8f3025;stop-opacity:1"
         offset="1" />
    </linearGradient>
    <linearGradient
       x1="8.8128157"
       y1="5.939332"
       x2="19.72506"
       y2="29.856796"
       id="linearGradient6334"
       xlink:href="#linearGradient6297"
       gradientUnits="userSpaceOnUse"
       gradientTransform="translate(0,1.9833326)" />
    <linearGradient
       id="linearGradient2456">
      <stop
         id="stop2458"
         style="stop-color:black;stop-opacity:1"
         offset="0" />
      <stop
         id="stop2460"
         style="stop-color:black;stop-opacity:0"
         offset="1" />
    </linearGradient>
    <radialGradient
       cx="28.283663"
       cy="47.400623"
       r="13.804391"
       fx="28.283663"
       fy="47.400623"
       id="radialGradient6331"
       xlink:href="#linearGradient2456"
       gradientUnits="userSpaceOnUse"
       gradientTransform="matrix(1.7385775,0,0,1.2826837,-25.173331,-31.506667)" />
    <linearGradient
       id="linearGradient6699">
      <stop
         id="stop6701"
         style="stop-color:#f8b17e;stop-opacity:1"
         offset="0" />
      <stop
         id="stop6295"
         style="stop-color:#c6262e;stop-opacity:1"
         offset="1" />
    </linearGradient>
    <linearGradient
       x1="-25.286484"
       y1="17.743382"
       x2="-16.964699"
       y2="32.402924"
       id="linearGradient6327"
       xlink:href="#linearGradient6699"
       gradientUnits="userSpaceOnUse"
       gradientTransform="matrix(1.6629504,0,0,2.075635,54.992555,-26.273307)" />
    <linearGradient
       id="linearGradient6711">
      <stop
         id="stop6713"
         style="stop-color:#8badea;stop-opacity:1"
         offset="0" />
      <stop
         id="stop6715"
         style="stop-color:#3b7caf;stop-opacity:1"
         offset="1" />
    </linearGradient>
    <linearGradient
       x1="-15.861224"
       y1="25.283489"
       x2="-11.915193"
       y2="30.298059"
       id="linearGradient6323"
       xlink:href="#linearGradient6711"
       gradientUnits="userSpaceOnUse"
       gradientTransform="matrix(1.662906,0,0,2.2591945,54.992262,-32.169765)" />
    <linearGradient
       id="linearGradient6719">
      <stop
         id="stop6721"
         style="stop-color:#8cab2a;stop-opacity:1"
         offset="0" />
      <stop
         id="stop6723"
         style="stop-color:#d7e866;stop-opacity:1"
         offset="1" />
    </linearGradient>
    <linearGradient
       x1="-15.059621"
       y1="33.7365"
       x2="-19.19733"
       y2="26.484671"
       id="linearGradient6319"
       xlink:href="#linearGradient6719"
       gradientUnits="userSpaceOnUse"
       gradientTransform="matrix(1.6710242,0,0,2.2484561,55.349573,-31.970094)" />
    <linearGradient
       x1="-20.75"
       y1="29"
       x2="-19.5"
       y2="18.75"
       id="linearGradient6316"
       xlink:href="#linearGradient6687"
       gradientUnits="userSpaceOnUse"
       gradientTransform="matrix(1.6595737,0,0,2.0645149,54.90956,-25.839218)" />
    <linearGradient
       id="linearGradient6687">
      <stop
         id="stop6689"
         style="stop-color:white;stop-opacity:1"
         offset="0" />
      <stop
         id="stop6691"
         style="stop-color:white;stop-opacity:0"
         offset="1" />
    </linearGradient>
    <linearGradient
       x1="-20.75"
       y1="29"
       x2="-19.5"
       y2="18.75"
       id="linearGradient6313"
       xlink:href="#linearGradient6687"
       gradientUnits="userSpaceOnUse"
       gradientTransform="matrix(1.6595755,0,0,1.9354855,54.909593,-18.694127)" />
  </defs>
  <g
     id="layer1">
    <path
       d="M 24,6.9833316 C 16.353012,6.9333898 8.2859562,10.625866 4.65625,17.608332 3.0140758,20.527426 2.9268123,23.913449 3,27.170832 c -0.2402835,3.840995 1.0183786,7.728682 3.625,10.59375 3.453752,3.882508 8.28723,6.170747 13.375,6.9375 l 0,-21.625 24.9375,0 C 44.361407,16.521578 39.255206,11.159177 33.3125,8.7958316 30.372331,7.5852163 27.176783,6.982309 24,6.9833316 z"
       id="path6298"
       style="fill:url(#linearGradient6334);fill-opacity:1;fill-rule:nonzero;stroke:none" />
    <path
       d="M 47.999998,29.293334 C 47.999998,39.072455 37.254833,47 23.999999,47 10.745164,47 -1.0019047e-6,39.072455 -1.0019047e-6,29.293334 -1.0019047e-6,19.514212 10.745164,11.586667 23.999999,11.586667 c 13.254834,0 23.999999,7.927545 23.999999,17.706667 l 0,0 z"
       id="path1693"
       style="fill:url(#radialGradient6331);fill-opacity:1;fill-rule:evenodd;stroke:none" />
    <path
       d="M 43.311283,24.448546 C 41.018766,17.84533 33.245349,12.983332 24.000535,12.983332 c -9.244816,0 -17.018233,4.861998 -19.3107515,11.465214 L 4,24.448546 4,28.484647 C 4,37.044763 12.955447,43.983332 24.000535,43.983332 35.046688,43.983332 44,37.044763 44,28.484647 l 0,-4.036101 -0.688717,0 0,0 z"
       id="path3933"
       style="fill:#a40000;fill-rule:nonzero;stroke:none" />
    <path
       d="M 44,24.483334 C 44,33.59711 35.046688,40.983332 24.000534,40.983332 12.95438,40.983332 4,33.59711 4,24.483334 4,15.369554 12.955446,7.9833317 24.000534,7.9833317 35.046688,7.9833317 44,15.369554 44,24.483334 l 0,0 z"
       id="path3935"
       style="fill:url(#linearGradient6327);fill-opacity:1;fill-rule:nonzero;stroke:none" />
    <path
       d="m 30.90625,23.077082 0,21 c 5.870387,-1.598439 11.43031,-5.490767 13.4375,-11.40625 0.97695,-2.955978 0.601164,-6.097656 0.625,-9.15625 -0.0083,-0.147341 -0.0184,-0.291315 -0.03125,-0.4375 l -14.03125,0 z"
       id="path6338"
       style="fill:#1e3f5a;fill-opacity:1;fill-rule:nonzero;stroke:none" />
    <path
       d="M 44,28.983332 43.972888,24.63061 C 41.67857,33.673488 36.51946,37.504481 30.033012,39.380001 l 0,3.903331 C 37,41.604228 43.601955,36.442128 44,28.983332 l 0,0 z"
       id="path3937"
       style="fill:#2d5f87;fill-opacity:1;fill-rule:nonzero;stroke:none" />
    <path
       d="M 44,23.075555 C 44.711363,35.353795 32.600354,39.69637 30.760985,39.983332 L 24,22.989617 l 19.998932,0.08594 0.0011,0 z"
       id="path3939"
       style="fill:url(#linearGradient6323);fill-opacity:1;fill-rule:nonzero;stroke:none" />
    <path
       d="m 20,42.983332 0,1.71875 c 3.066032,0.466749 6.217746,0.378521 9.21875,-0.21875 0.562485,-0.11014 1.128083,-0.254251 1.6875,-0.40625 l 0,-1.09375 -10.90625,0 z"
       id="path6346"
       style="fill:#486725;fill-opacity:1;fill-rule:nonzero;stroke:none" />
    <path
       d="m 20,40.33072 c 3.737802,0.469206 7.167032,0.551881 10.8709,-0.340363 l 0.03711,3.092975 C 27.804314,44.064691 23,44.215411 20,43.683332 l 0,-3.352612 z"
       id="path3941"
       style="fill:#699536;fill-opacity:1;fill-rule:nonzero;stroke:none" />
    <path
       d="m 24,22.983332 6.9,17 c -4.9,1.583736 -9.9,1 -10.9,0.612 l 4,-17.612 z"
       id="path3943"
       style="fill:url(#linearGradient6319);fill-opacity:1;fill-rule:nonzero;stroke:none" />
    <path
       d="m 43.499991,24.483333 c 0,8.836551 -8.730443,15.99999 -19.499991,15.99999 -10.769548,0 -19.4999911,-7.163439 -19.4999911,-15.99999 0,-8.836551 8.7304431,-15.9999912 19.4999911,-15.9999912 10.769548,0 19.499991,7.1634402 19.499991,15.9999912 l 0,0 z"
       id="path5959"
       style="opacity:0.31111115;fill:none;stroke:url(#linearGradient6316);stroke-width:1.00001836;stroke-linecap:butt;stroke-linejoin:miter;stroke-miterlimit:4;stroke-opacity:1;stroke-dasharray:none;stroke-dashoffset:0;marker:none;visibility:visible;display:block;overflow:visible" />
    <path
       d="m 43.500011,28.483332 c 0,8.284279 -8.730452,15.000013 -19.500012,15.000013 -10.769559,0 -19.5000118,-6.715734 -19.5000118,-15.000013 0,-8.284279 8.7304528,-15.000013 19.5000118,-15.000013 10.76956,0 19.500012,6.715734 19.500012,15.000013 l 0,0 z"
       id="path6707"
       style="opacity:0.13333327;fill:none;stroke:url(#linearGradient6313);stroke-width:0.99997467;stroke-linecap:butt;stroke-linejoin:miter;stroke-miterlimit:4;stroke-opacity:1;stroke-dasharray:none;stroke-dashoffset:0;marker:none;visibility:visible;display:block;overflow:visible" />
  </g>
</svg>

<?xml version="1.0" encoding="UTF-8" standalone="no"?>
<!-- Created with Inkscape (http://www.inkscape.org/) -->
<svg
   xmlns:svg="http://www.w3.org/2000/svg"
   xmlns="http://www.w3.org/2000/svg"
   xmlns:xlink="http://www.w3.org/1999/xlink"
   version="1.0"
   width="48"
   height="48"
   id="svg2417">
  <defs
     id="defs2419">
    <linearGradient
       id="linearGradient6297">
      <stop
         id="stop6299"
         style="stop-color:#d87468;stop-opacity:1"
         offset="0" />
      <stop
         id="stop6281"
         style="stop-color:#8f3025;stop-opacity:1"
         offset="1" />
    </linearGradient>
    <linearGradient
       x1="8.8128157"
       y1="5.939332"
       x2="19.72506"
       y2="29.856796"
       id="linearGradient6334"
       xlink:href="#linearGradient6297"
       gradientUnits="userSpaceOnUse"
       gradientTransform="translate(0,1.9833326)" />
    <linearGradient
       id="linearGradient2456">
      <stop
         id="stop2458"
         style="stop-color:#000000;stop-opacity:1"
         offset="0" />
      <stop
         id="stop2460"
         style="stop-color:#000000;stop-opacity:0"
         offset="1" />
    </linearGradient>
    <radialGradient
       cx="28.283663"
       cy="47.400623"
       r="13.804391"
       fx="28.283663"
       fy="47.400623"
       id="radialGradient6331"
       xlink:href="#linearGradient2456"
       gradientUnits="userSpaceOnUse"
       gradientTransform="matrix(1.7385775,0,0,1.2826837,-25.173331,-31.506667)" />
    <linearGradient
       id="linearGradient6699">
      <stop
         id="stop6701"
         style="stop-color:#f8b17e;stop-opacity:1"
         offset="0" />
      <stop
         id="stop6295"
         style="stop-color:#c6262e;stop-opacity:1"
         offset="1" />
    </linearGradient>
    <linearGradient
       x1="-25.286484"
       y1="17.743382"
       x2="-16.964699"
       y2="32.402924"
       id="linearGradient6327"
       xlink:href="#linearGradient6699"
       gradientUnits="userSpaceOnUse"
       gradientTransform="matrix(1.6629504,0,0,2.075635,54.992555,-26.273307)" />
    <linearGradient
       id="linearGradient6711">
      <stop
         id="stop6713"
         style="stop-color:#8badea;stop-opacity:1"
         offset="0" />
      <stop
         id="stop6715"
         style="stop-color:#3b7caf;stop-opacity:1"
         offset="1" />
    </linearGradient>
    <linearGradient
       x1="-15.861224"
       y1="25.283489"
       x2="-11.915193"
       y2="30.298059"
       id="linearGradient6323"
       xlink:href="#linearGradient6711"
       gradientUnits="userSpaceOnUse"
       gradientTransform="matrix(1.662906,0,0,2.2591945,54.992262,-32.169765)" />
    <linearGradient
       id="linearGradient6719">
      <stop
         id="stop6721"
         style="stop-color:#8cab2a;stop-opacity:1"
         offset="0" />
      <stop
         id="stop6723"
         style="stop-color:#d7e866;stop-opacity:1"
         offset="1" />
    </linearGradient>
    <linearGradient
       x1="-15.059621"
       y1="33.7365"
       x2="-19.19733"
       y2="26.484671"
       id="linearGradient6319"
       xlink:href="#linearGradient6719"
       gradientUnits="userSpaceOnUse"
       gradientTransform="matrix(1.6710242,0,0,2.2484561,55.349573,-31.970094)" />
    <linearGradient
       x1="-20.75"
       y1="29"
       x2="-19.5"
       y2="18.75"
       id="linearGradient6316"
       xlink:href="#linearGradient6687"
       gradientUnits="userSpaceOnUse"
       gradientTransform="matrix(1.6595737,0,0,2.0645149,54.90956,-25.839218)" />
    <linearGradient
       id="linearGradient6687">
      <stop
         id="stop6689"
         style="stop-color:#ffffff;stop-opacity:1"
         offset="0" />
      <stop
         id="stop6691"
         style="stop-color:#ffffff;stop-opacity:0"
         offset="1" />
    </linearGradient>
    <linearGradient
       x1="-20.75"
       y1="29"
       x2="-19.5"
       y2="18.75"
       id="linearGradient6313"
       xlink:href="#linearGradient6687"
       gradientUnits="userSpaceOnUse"
       gradientTransform="matrix(1.6595755,0,0,1.9354855,54.909593,-18.694127)" />
  </defs>
  <g
     id="layer1">
    <path
       d="M 24,6.9833316 C 16.353012,6.9333898 8.2859562,10.625866 4.65625,17.608332 C 3.0140758,20.527426 2.9268123,23.913449 3,27.170832 C 2.7597165,31.011827 4.0183786,34.899514 6.625,37.764582 C 10.078752,41.64709 14.91223,43.935329 20,44.702082 L 20,23.077082 L 44.9375,23.077082 C 44.361407,16.521578 39.255206,11.159177 33.3125,8.7958316 C 30.372331,7.5852163 27.176783,6.982309 24,6.9833316 z"
       id="path6298"
       style="fill:url(#linearGradient6334);fill-opacity:1;fill-rule:nonzero;stroke:none;stroke-width:1;stroke-miterlimit:4;stroke-dasharray:none;stroke-opacity:1" />
    <path
       d="M 47.999998,29.293334 C 47.999998,39.072455 37.254833,47 23.999999,47 C 10.745164,47 -1.0019047e-06,39.072455 -1.0019047e-06,29.293334 C -1.0019047e-06,19.514212 10.745164,11.586667 23.999999,11.586667 C 37.254833,11.586667 47.999998,19.514212 47.999998,29.293334 L 47.999998,29.293334 z"
       id="path1693"
       style="fill:url(#radialGradient6331);fill-opacity:1;fill-rule:evenodd;stroke:none;stroke-width:1px;stroke-linecap:butt;stroke-linejoin:miter;stroke-opacity:1" />
    <path
       d="M 43.311283,24.448546 C 41.018766,17.84533 33.245349,12.983332 24.000535,12.983332 C 14.755719,12.983332 6.982302,17.84533 4.6897835,24.448546 L 4,24.448546 L 4,28.484647 C 4,37.044763 12.955447,43.983332 24.000535,43.983332 C 35.046688,43.983332 44,37.044763 44,28.484647 L 44,24.448546 L 43.311283,24.448546 L 43.311283,24.448546 z"
       id="path3933"
       style="fill:#a40000;fill-rule:nonzero;stroke:none;stroke-miterlimit:4" />
    <path
       d="M 44,24.483334 C 44,33.59711 35.046688,40.983332 24.000534,40.983332 C 12.95438,40.983332 4,33.59711 4,24.483334 C 4,15.369554 12.955446,7.9833317 24.000534,7.9833317 C 35.046688,7.9833317 44,15.369554 44,24.483334 L 44,24.483334 z"
       id="path3935"
       style="fill:url(#linearGradient6327);fill-opacity:1;fill-rule:nonzero;stroke:none;stroke-miterlimit:4" />
    <path
       d="M 30.90625,23.077082 L 30.90625,44.077082 C 36.776637,42.478643 42.33656,38.586315 44.34375,32.670832 C 45.3207,29.714854 44.944914,26.573176 44.96875,23.514582 C 44.960463,23.367241 44.950347,23.223267 44.9375,23.077082 L 30.90625,23.077082 z"
       id="path6338"
       style="fill:#1e3f5a;fill-opacity:1;fill-rule:nonzero;stroke:none;stroke-width:1;stroke-miterlimit:4;stroke-dasharray:none;stroke-opacity:1" />
    <path
       d="M 44,28.983332 L 43.972888,24.63061 C 41.67857,33.673488 36.51946,37.504481 30.033012,39.380001 L 30.033012,43.283332 C 37,41.604228 43.601955,36.442128 44,28.983332 L 44,28.983332 z"
       id="path3937"
       style="fill:#2d5f87;fill-opacity:1;fill-rule:nonzero;stroke:none;stroke-miterlimit:4" />
    <path
       d="M 44,23.075555 C 44.711363,35.353795 32.600354,39.69637 30.760985,39.983332 L 24,22.989617 L 43.998932,23.075555 L 44,23.075555 z"
       id="path3939"
       style="fill:url(#linearGradient6323);fill-opacity:1;fill-rule:nonzero;stroke:none;stroke-miterlimit:4" />
    <path
       d="M 20,42.983332 L 20,44.702082 C 23.066032,45.168831 26.217746,45.080603 29.21875,44.483332 C 29.781235,44.373192 30.346833,44.229081 30.90625,44.077082 L 30.90625,42.983332 L 20,42.983332 z"
       id="path6346"
       style="fill:#486725;fill-opacity:1;fill-rule:nonzero;stroke:none;stroke-width:1;stroke-miterlimit:4;stroke-dasharray:none;stroke-opacity:1" />
    <path
       d="M 20,40.33072 C 23.737802,40.799926 27.167032,40.882601 30.8709,39.990357 L 30.908012,43.083332 C 27.804314,44.064691 23,44.215411 20,43.683332 L 20,40.33072 z"
       id="path3941"
       style="fill:#699536;fill-opacity:1;fill-rule:nonzero;stroke:none;stroke-miterlimit:4" />
    <path
       d="M 24,22.983332 L 30.9,39.983332 C 26,41.567068 21,40.983332 20,40.595332 L 24,22.983332 z"
       id="path3943"
       style="fill:url(#linearGradient6319);fill-opacity:1;fill-rule:nonzero;stroke:none;stroke-miterlimit:4" />
    <path
       d="M 43.499991,24.483333 C 43.499991,33.319884 34.769548,40.483323 24,40.483323 C 13.230452,40.483323 4.5000089,33.319884 4.5000089,24.483333 C 4.5000089,15.646782 13.230452,8.4833418 24,8.4833418 C 34.769548,8.4833418 43.499991,15.646782 43.499991,24.483333 L 43.499991,24.483333 z"
       id="path5959"
       style="opacity:0.31111115;fill:none;fill-opacity:1;fill-rule:evenodd;stroke:url(#linearGradient6316);stroke-width:1.00001836;stroke-linecap:butt;stroke-linejoin:miter;marker:none;marker-start:none;marker-mid:none;marker-end:none;stroke-miterlimit:4;stroke-dasharray:none;stroke-dashoffset:0;stroke-opacity:1;visibility:visible;display:block;overflow:visible" />
    <path
       d="M 43.500011,28.483332 C 43.500011,36.767611 34.769559,43.483345 23.999999,43.483345 C 13.23044,43.483345 4.4999872,36.767611 4.4999872,28.483332 C 4.4999872,20.199053 13.23044,13.483319 23.999999,13.483319 C 34.769559,13.483319 43.500011,20.199053 43.500011,28.483332 L 43.500011,28.483332 z"
       id="path6707"
       style="opacity:0.13333327;fill:none;fill-opacity:1;fill-rule:evenodd;stroke:url(#linearGradient6313);stroke-width:0.99997467;stroke-linecap:butt;stroke-linejoin:miter;marker:none;marker-start:none;marker-mid:none;marker-end:none;stroke-miterlimit:4;stroke-dasharray:none;stroke-dashoffset:0;stroke-opacity:1;visibility:visible;display:block;overflow:visible" />
  </g>
</svg>
